X:1
T:Title
%%score { ( 1 4 ) | ( 2 3 ) }
L:1/8
M:6/4
K:Eb
V:1 treble nm="Grand Piano"
V:4 treble 
V:2 bass 
V:3 bass 
V:1
 z6 z4 E2 | E4 E2 G4 [A,DF]2 | [A,DF]4 [G,E]2 [G,E]4 [G,E]2 | [CEA]4 [CEA]2 [B,EG]4 [B,DF]2 | %4
[M:5/4] [B,EG]2- [B,EG]2- [B,EG]6 |[M:1/4] [G,B,E]2 |[M:6/4] [G,B,E]4 [G,B,E]2 [B,EG]4 [A,DF]2 | %7
 [A,DF]4 [G,E]2 [G,E]4 [=A,EG]2 | F4 B2 c4 =A2 |[M:5/4] [DB]2- [DB]2- [DB]6 |[M:1/4] B2 | %11
[M:6/4] c4 c2 B4 c2 | A4 [DB]2 [EG]4 [G,G]2 | [Ee]4 [Ec]2 [Fd]4 [D=B]2 | %14
[M:5/4] [Ec]2- [Ec]2- [Ec]6 |[M:1/4] [Fd]2 |[M:6/4] e4 e2 e2 d2 [Ec]2 | z6 .B6 | %18
 [G,B,E]2 [DF]2 [EG]2 [DA]4 D2 |[M:5/4] E2- E2- E6 |] %20
V:2
 z6 z4 [E,G,B,]2 | [E,G,B,]4 [E,G,B,]2 [E,B,E]4 B,,2 | B,,4 C,2 C,4 C,2 | F,,4 F,,2 B,,4 B,,2 | %4
[M:5/4] E,2- E,2- E,6 |[M:1/4] E,2 |[M:6/4] E,4 E,2 E,4 B,,2 | B,,4 C,2 C,4 C,2 | %8
 [D,B,]4 [G,B,D]2 [F,=A,E]4 [F,CE]2 |[M:5/4] [B,,B,]2- [B,,B,]2- [B,,B,]6 |[M:1/4] [E,G,E]2 | %11
[M:6/4] [A,E]4 [A,E]2 [G,B,E]4 [A,E]2 | [F,CE]4 [B,,B,]2 .[E,B,]6 | %13
 [C,G,]4 [E,G,]2 [G,=B,]4 [G,,G,]2 |[M:5/4] [C,G,]2- [C,G,]2- [C,G,]6 |[M:1/4] [B,,A,]2 | %16
[M:6/4] z6 .C6 | [E,G,]4 [_D,G,]2 [C,A,]2 A,,2 A,,2 | z2 F,2 [B,,E,]2 [B,,F,]4 [B,,A,B,]2 | %19
[M:5/4] [E,G,B,]2- [E,G,B,]2- [E,G,B,]6 |] %20
V:3
 x12 | x12 | x12 | x12 |[M:5/4] x10 |[M:1/4] x2 |[M:6/4] x12 | x12 | x12 |[M:5/4] x10 |[M:1/4] x2 | %11
[M:6/4] x12 | x12 | x12 |[M:5/4] x10 |[M:1/4] x2 | %16
[M:6/4] [E,G,E]4 [G,B,E]2 [A,E]2- [A,B,E]2 [A,,A,]2 | x12 | .B,,6 z6 |[M:5/4] x10 |] %20
V:4
 x12 | x12 | x12 | x12 |[M:5/4] x10 |[M:1/4] x2 |[M:6/4] x12 | x12 | x12 |[M:5/4] x10 |[M:1/4] x2 | %11
[M:6/4] x12 | x12 | x12 |[M:5/4] x10 |[M:1/4] x2 |[M:6/4] x12 | [EB]4 [EB]2 E2- [CEA]2 [A,CF]2 | %18
 x12 |[M:5/4] x10 |] %20

